X:76
T:Smack of the Whip,The. JMP.076
M:9/8
L:1/8
Q:3/8=120
C:â€81â€¦A Retreatâ€
S:John Miller MS. Perth, 1799.(for the fife)
R:.Slip Jig
O:Scotland
A:Perth
N:1 â€“ What appear to be pause marks are written above and below the last
N:double bar
H:1799
Z:vmp.C. Graebe
K:D Major
â€œNo time sig given -key given as Gâ€¦?â€g | f2d ecA A2g |\
f2d ecA d2 g| f2d ecA Ag2 | faf gec d2 :|!
|: g | f2d gec c2 g |faf gef g2 e | faf gec c2 g | faf gecâ€1â€³d2 ğŸ˜

